Sources/FrostedUI/Resources/Icons.xcassets/heart32.imageset/heart-32.svg

<svg width="32" height="32" viewBox="0 0 32 32" fill="none" xmlns="http://www.w3.org/2000/svg" data-fui-icon="true">
  <path
    d="M21.4541 5.25C25.5149 5.25 28.75 8.78401 28.75 13C28.75 14.961 27.9124 16.8593 26.7432 18.5645C25.5697 20.2758 24.0202 21.8541 22.4941 23.1895C20.9648 24.5276 19.4386 25.64 18.2969 26.417C17.7254 26.8059 17.2483 27.1117 16.9131 27.3213C16.7454 27.4261 16.6126 27.5066 16.5215 27.5615C16.476 27.5889 16.4412 27.6106 16.417 27.625C16.4049 27.6322 16.3952 27.6378 16.3887 27.6416C16.3855 27.6435 16.3826 27.6445 16.3809 27.6455C16.38 27.646 16.3794 27.6472 16.3789 27.6475H16.3779C16.1437 27.7841 15.8539 27.7839 15.6201 27.6465H15.6191V27.6455C15.6186 27.6452 15.6171 27.6451 15.6162 27.6445C15.6144 27.6435 15.6115 27.6415 15.6084 27.6396C15.6019 27.6358 15.5929 27.6301 15.5811 27.623C15.5568 27.6086 15.5211 27.5872 15.4756 27.5596C15.3845 27.5042 15.2524 27.4228 15.085 27.3174C14.7498 27.1064 14.2725 26.7984 13.7012 26.4072C12.5597 25.6258 11.0338 24.5085 9.50488 23.167C7.97929 21.8284 6.42997 20.2489 5.25684 18.541C4.08825 16.8397 3.25 14.9476 3.25 13C3.25 8.78401 6.48505 5.25 10.5459 5.25C12.7273 5.25013 14.6801 6.24468 16 7.85352C17.3199 6.24468 19.2727 5.25013 21.4541 5.25ZM21.4541 6.75C19.4423 6.75016 17.6622 7.82306 16.6445 9.5332L16 9.14941L15.3555 9.5332C14.3378 7.82306 12.5577 6.75016 10.5459 6.75C7.40675 6.75 4.75 9.51599 4.75 13C4.75 14.5232 5.41175 16.117 6.49316 17.6914C7.56996 19.2591 9.02086 20.7455 10.4951 22.0391C11.9661 23.3297 13.4403 24.411 14.5488 25.1699C15.1023 25.5489 15.5628 25.8467 15.8838 26.0488C15.925 26.0748 15.9645 26.0983 16.001 26.1211C16.0374 26.0985 16.077 26.0755 16.1182 26.0498C16.4391 25.8492 16.8997 25.5534 17.4531 25.1768C18.5614 24.4225 20.0353 23.3473 21.5059 22.0605C22.9797 20.7709 24.4303 19.2867 25.5068 17.7168C26.5876 16.1407 27.25 14.539 27.25 13C27.25 9.51599 24.5933 6.75 21.4541 6.75ZM16.6445 9.5332C16.5093 9.76044 16.2644 9.90039 16 9.90039C15.7356 9.90039 15.4907 9.76044 15.3555 9.5332L16 9.15039L16.6445 9.5332Z"
    fill="currentColor"
  />
</svg>

<svg xmlns="http://www.w3.org/2000/svg" width="32" height="32" fill="none" data-fui-icon="true" viewBox="0 0 32 32"><path fill="currentColor" d="M21.454 5.25c4.06 0 7.296 3.534 7.296 7.75 0 1.961-.838 3.86-2.007 5.564-1.173 1.712-2.723 3.29-4.249 4.625a44.5 44.5 0 0 1-5.972 4.372q-.068.042-.105.064l-.028.017-.008.003-.002.003h-.001a.75.75 0 0 1-.758-.002q-.002 0-.004-.002l-.008-.004-.027-.017-.105-.063-.391-.243a43 43 0 0 1-1.384-.91 45 45 0 0 1-4.196-3.24c-1.526-1.339-3.075-2.918-4.248-4.626C4.088 16.84 3.25 14.948 3.25 13c0-4.216 3.235-7.75 7.296-7.75 2.181 0 4.134.995 5.454 2.604 1.32-1.61 3.273-2.604 5.454-2.604m0 1.5c-2.012 0-3.792 1.073-4.81 2.783L16 9.15l-.645.384c-1.017-1.71-2.797-2.783-4.81-2.783C7.408 6.75 4.75 9.516 4.75 13c0 1.523.662 3.117 1.743 4.691 1.077 1.568 2.528 3.055 4.002 4.348a44 44 0 0 0 4.054 3.13c.553.38 1.014.678 1.335.88l.117.072.117-.071c.321-.2.782-.497 1.335-.873a43 43 0 0 0 4.053-3.116c1.474-1.29 2.924-2.774 4-4.344C26.589 16.14 27.25 14.539 27.25 13c0-3.484-2.657-6.25-5.796-6.25m-4.81 2.783a.75.75 0 0 1-1.288 0L16 9.15z"/></svg>
